X: 1
T:Megan's Favorite
R:strathspey
C:Tony Upton, 3/19/98
M:4/4
L:1/8
Q:1/4=152
K:D
A2|:G>DB,>D G>dB>G|D>B,G,>B, D>AF<D|G>DB,>D G>g (3fed|(3BAG (3DEF G2G2|!
G>DB,>D G>dB>G|D>B,G,>B, D>AF<D|G>DGdB<f g2g2:|[2 A>dB
<f g2g2||!
a2|:g<dB<d G<dB<G|D>B,G,<B, D<AF<D|g<dB<d G<dB<G|G,<DA,<F G2G2|
g<dB<d G<d (3edB|D>B, (3G,A,B, D<AF<D|g<Dd<D B<DA<D|G<DA,<F G2G2:|
% Output from ABC2Win  Version 2.1 h on 13/02/2002
